X: 22
T:Salmon Tails up the Water [in G]
T:Siege of Ennis, The
T:Andy Irvine's Polka
M:2/4
L:1/8
R:Set Dance/Polka
K:G
D>E DB,|DE GA|Bd AB/2A/2|GE cE|!
D>E DB,|DE GA|Bd AB/2A/2|1G2 GE:|2G2 G>A|]!
Bd dB|ce ed|Bd AB/2A/2|GE GE|!
Bd dB|ce ef|ge fd|e2 ef|!
ge fd|ed B2|Bd AB/2A/2|GE cE|!
D>E DB,|DE GA|Bd AB/2A/2|G2 GE|]!
